pix_core/f/archive.svg

<?xml version="1.0" encoding="UTF-8" standalone="no"?>
<svg
   xmlns:dc="http://purl.org/dc/elements/1.1/"
   xmlns:cc="http://creativecommons.org/ns#"
   xmlns:rdf="http://www.w3.org/1999/02/22-rdf-syntax-ns#"
   xmlns:svg="http://www.w3.org/2000/svg"
   xmlns="http://www.w3.org/2000/svg"
   xmlns:sodipodi="http://sodipodi.sourceforge.net/DTD/sodipodi-0.dtd"
   xmlns:inkscape="http://www.inkscape.org/namespaces/inkscape"
   enable-background="new 0 0 64 64"
   height="64px"
   id="Layer_1"
   version="1.1"
   viewBox="0 0 64 64"
   width="64px"
   xml:space="preserve"
   inkscape:version="0.91 r13725"
   sodipodi:docname="archive.svg"><metadata
     id="metadata33"><rdf:RDF><cc:Work
         rdf:about=""><dc:format>image/svg+xml</dc:format><dc:type
           rdf:resource="http://purl.org/dc/dcmitype/StillImage" /><dc:title /></cc:Work></rdf:RDF></metadata><defs
     id="defs31" /><sodipodi:namedview
     pagecolor="#ffffff"
     bordercolor="#666666"
     borderopacity="1"
     objecttolerance="10"
     gridtolerance="10"
     guidetolerance="10"
     inkscape:pageopacity="0"
     inkscape:pageshadow="2"
     inkscape:window-width="1114"
     inkscape:window-height="851"
     id="namedview29"
     showgrid="false"
     inkscape:zoom="3.6875"
     inkscape:cx="3.5097784"
     inkscape:cy="32"
     inkscape:window-x="10"
     inkscape:window-y="34"
     inkscape:window-maximized="0"
     inkscape:current-layer="g4167" /><g
     style="fill:#000000"
     id="g4167"
     transform="matrix(2,0,0,2,7.4576271,9.3559322)"><path
       style="fill:#61ca5e;fill-opacity:1"
       id="path4"
       d="M 26.089831,0.37018832 23.851695,-2.3475518 C 23.41695,-2.8975707 22.756781,-3.2372881 22,-3.2372881 l -19.3220339,0 c -0.7567796,0 -1.4169492,0.3397174 -1.8677966,0.8897363 l -2.2220339,2.71774012 c -0.4669492,0.55001883 -0.740678,1.27798498 -0.740678,2.05448208 l 0,20.2212806 c 0,1.779473 1.44915258,3.235405 3.220339,3.235405 l 22.5423724,0 c 1.771187,0 3.220339,-1.455932 3.220339,-3.235405 l 0,-20.2212806 c 0,-0.7764971 -0.273728,-1.50446325 -0.740677,-2.05448208 z M 12.338983,20.219398 3.4830509,11.322034 l 5.6355932,0 0,-3.235405 6.4406789,0 0,3.235405 5.635593,0 -8.855933,8.897364 z M 1.2610169,-0.00188324 2.5652542,-1.6195856 l 19.3220338,0 1.513559,1.61770236 -22.1398301,0 z"
       inkscape:connector-curvature="0" /><path
       id="path6"
       d="M 0,0 24,0 24,24 0,24 Z"
       inkscape:connector-curvature="0"
       style="fill:none" /></g></svg>

<?xml version="1.0" encoding="UTF-8" standalone="no"?>
<svg
   xmlns:dc="http://purl.org/dc/elements/1.1/"
   xmlns:cc="http://creativecommons.org/ns#"
   xmlns:rdf="http://www.w3.org/1999/02/22-rdf-syntax-ns#"
   xmlns:svg="http://www.w3.org/2000/svg"
   xmlns="http://www.w3.org/2000/svg"
   xmlns:sodipodi="http://sodipodi.sourceforge.net/DTD/sodipodi-0.dtd"
   xmlns:inkscape="http://www.inkscape.org/namespaces/inkscape"
   enable-background="new 0 0 64 64"
   height="68.26667"
   id="Layer_1"
   version="1.1"
   viewBox="0 0 64 64"
   width="68.26667"
   xml:space="preserve"
   inkscape:version="0.92.1 r15371"
   sodipodi:docname="archive.svg"><metadata
     id="metadata33"><rdf:RDF><cc:Work
         rdf:about=""><dc:format>image/svg+xml</dc:format><dc:type
           rdf:resource="http://purl.org/dc/dcmitype/StillImage" /><dc:title /></cc:Work></rdf:RDF></metadata><defs
     id="defs31" /><sodipodi:namedview
     pagecolor="#ffffff"
     bordercolor="#666666"
     borderopacity="1"
     objecttolerance="10"
     gridtolerance="10"
     guidetolerance="10"
     inkscape:pageopacity="0"
     inkscape:pageshadow="2"
     inkscape:window-width="1114"
     inkscape:window-height="851"
     id="namedview29"
     showgrid="false"
     inkscape:zoom="3.6875"
     inkscape:cx="3.5097784"
     inkscape:cy="32"
     inkscape:window-x="10"
     inkscape:window-y="34"
     inkscape:window-maximized="0"
     inkscape:current-layer="g4167" /><g
     style="fill:#000000"
     id="g4167"
     transform="matrix(2,0,0,2,7.4576271,9.3559322)"><path
       style="fill:#31b7d6;fill-opacity:1"
       id="path4"
       d="M 26.089831,0.37018832 23.851695,-2.3475518 C 23.41695,-2.8975707 22.756781,-3.2372881 22,-3.2372881 H 2.6779661 c -0.7567796,0 -1.4169492,0.3397174 -1.8677966,0.8897363 L -1.4118644,0.37018832 C -1.8788136,0.92020715 -2.1525424,1.6481733 -2.1525424,2.4246704 V 22.645951 c 0,1.779473 1.44915258,3.235405 3.220339,3.235405 H 23.610169 c 1.771187,0 3.220339,-1.455932 3.220339,-3.235405 V 2.4246704 c 0,-0.7764971 -0.273728,-1.50446325 -0.740677,-2.05448208 z M 12.338983,20.219398 3.4830509,11.322034 H 9.1186441 V 8.086629 h 6.4406789 v 3.235405 h 5.635593 z M 1.2610169,-0.00188324 2.5652542,-1.6195856 H 21.887288 l 1.513559,1.61770236 z"
       inkscape:connector-curvature="0" /><path
       id="path6"
       d="M 0,0 H 24 V 24 H 0 Z"
       inkscape:connector-curvature="0"
       style="fill:none" /></g></svg>
